app/webpacker/images/edit-with-pen.svg

<svg viewBox="0 0 13 13" fill="none" xmlns="http://www.w3.org/2000/svg">
<path d="M9.08646 2.11037L11.1222 4.40105C11.208 4.49756 11.208 4.65501 11.1222 4.75151L6.19306 10.2979L4.09861 10.5595C3.81875 10.595 3.58177 10.3284 3.61337 10.0135L3.84583 7.65677L8.775 2.11037C8.86076 2.01387 9.00069 2.01387 9.08646 2.11037ZM12.7427 1.52881L11.6413 0.28951C11.2983 -0.0965032 10.7408 -0.0965032 10.3955 0.28951L9.59653 1.18851C9.51076 1.28502 9.51076 1.44247 9.59653 1.53897L11.6323 3.82965C11.7181 3.92616 11.858 3.92616 11.9438 3.82965L12.7427 2.93065C13.0858 2.5421 13.0858 1.91483 12.7427 1.52881ZM8.66667 8.78941V11.3747H1.44444V3.2481H6.6309C6.70312 3.2481 6.77083 3.21508 6.82274 3.15921L7.72552 2.14339C7.89705 1.95038 7.77517 1.62278 7.53368 1.62278H1.08333C0.485243 1.62278 0 2.16878 0 2.84177V11.781C0 12.454 0.485243 13 1.08333 13H9.02778C9.62587 13 10.1111 12.454 10.1111 11.781V7.77359C10.1111 7.50186 9.81997 7.36726 9.64844 7.55773L8.74566 8.57355C8.69601 8.63196 8.66667 8.70815 8.66667 8.78941Z" fill="#4CB5C5"/>
</svg>

<?xml version="1.0" encoding="utf-8"?>
<!-- Generator: Adobe Illustrator 24.1.2, SVG Export Plug-In . SVG Version: 6.00 Build 0)  -->
<svg version="1.1" id="Layer_1" xmlns="http://www.w3.org/2000/svg" xmlns:xlink="http://www.w3.org/1999/xlink" x="0px" y="0px"
	 viewBox="0 0 13 13" style="enable-background:new 0 0 13 13;" xml:space="preserve">
<style type="text/css">
	.st0{fill:#008000;}
</style>
<path class="st0" d="M9.1,2.1l2,2.3c0.1,0.1,0.1,0.3,0,0.4l-4.9,5.5l-2.1,0.3c-0.3,0-0.5-0.2-0.5-0.5l0.2-2.4l4.9-5.5
	C8.9,2,9,2,9.1,2.1z M12.7,1.5l-1.1-1.2c-0.3-0.4-0.9-0.4-1.2,0L9.6,1.2c-0.1,0.1-0.1,0.3,0,0.4l2,2.3c0.1,0.1,0.2,0.1,0.3,0
	l0.8-0.9C13.1,2.5,13.1,1.9,12.7,1.5z M8.7,8.8v2.6H1.4V3.2h5.2c0.1,0,0.1,0,0.2-0.1l0.9-1c0.2-0.2,0-0.5-0.2-0.5H1.1
	C0.5,1.6,0,2.2,0,2.8v8.9C0,12.5,0.5,13,1.1,13H9c0.6,0,1.1-0.5,1.1-1.2v-4c0-0.3-0.3-0.4-0.5-0.2l-0.9,1C8.7,8.6,8.7,8.7,8.7,8.8z"
	/>
</svg>
